;FLAVOR:Marlin
;TIME:10342
;Filament used: 10.2153m
;Layer height: 0.15
;Generated with Cura_SteamEngine 3.6.0
M140 S60
M105
M190 S60
M104 S210
M105
M109 S210
M82 ;absolute extrusion mode
; Ender 3 Custom Start G-code
G28 ; Home all axes
G92 E0 ; Reset Extruder
G1 Z2.0 F3000 ; Move Z Axis up little to prevent scratching of Heat Bed
G1 X0.1 Y20 Z0.3 F5000.0 ; Move to start position
G1 X0.1 Y200.0 Z0.3 F1500.0 E15 ; Draw the first line
G1 X0.4 Y200.0 Z0.3 F5000.0 ; Move to side a little
G1 X0.4 Y20 Z0.3 F1500.0 E30 ; Draw the second line
G92 E0 ; Reset Extruder
G1 Z2.0 F3000 ; Move Z Axis up little to prevent scratching of Heat Bed
; End of custom start GCode
G92 E0
G1 F2400 E-5
;LAYER_COUNT:34
;LAYER:0
M107
M204 S5000
M205 X30 Y30
G0 F3600 X63.246 Y54.28 Z0.2
M204 S500
M205 X20 Y20
;TYPE:SKIRT
G1 F2400 E0
G1 F1800 X63.721 Y53.746 E0.02377
G1 X64.253 Y53.267 E0.04758
G1 X64.835 Y52.852 E0.07136
G1 X65.46 Y52.503 E0.09516
G1 X66.12 Y52.227 E0.11896
G1 X66.806 Y52.026 E0.14273
G1 X67.511 Y51.903 E0.16654
G1 X68.259 Y51.859 E0.19146
G1 X166.741 Y51.86 E3.46698
G1 X167.455 Y51.9 E3.49077
G1 X168.16 Y52.019 E3.51455
G1 X168.848 Y52.217 E3.53836
G1 X169.509 Y52.49 E3.56215
G1 X170.136 Y52.835 E3.58595
G1 X170.72 Y53.247 E3.60972
G1 X171.254 Y53.722 E3.63349
G1 X171.733 Y54.254 E3.6573
G1 X172.148 Y54.836 E3.68107
G1 X172.497 Y55.461 E3.70488
G1 X172.773 Y56.121 E3.72868
G1 X172.974 Y56.807 E3.75245
G1 X173.097 Y57.512 E3.77626
G1 X173.141 Y58.26 E3.80118
G1 X173.141 Y176.741 E7.74187
G1 X173.101 Y177.455 E7.76566
G1 X172.982 Y178.16 E7.78944
G1 X172.784 Y178.848 E7.81325
G1 X172.511 Y179.509 E7.83703
G1 X172.167 Y180.136 E7.86082
G1 X171.754 Y180.72 E7.88461
G1 X171.279 Y181.254 E7.90838
G1 X170.747 Y181.733 E7.93219
G1 X170.165 Y182.148 E7.95597
G1 X169.54 Y182.497 E7.97977
G1 X168.88 Y182.773 E8.00357
G1 X168.194 Y182.974 E8.02734
G1 X167.489 Y183.097 E8.05115
G1 X166.741 Y183.141 E8.07607
G1 X68.259 Y183.141 E11.35159
G1 X67.545 Y183.101 E11.37538
G1 X66.84 Y182.982 E11.39916
G1 X66.152 Y182.784 E11.42297
G1 X65.491 Y182.511 E11.44676
G1 X64.864 Y182.167 E11.47054
G1 X64.28 Y181.754 E11.49433
G1 X63.746 Y181.279 E11.5181
G1 X63.267 Y180.747 E11.54191
G1 X62.852 Y180.165 E11.56569
G1 X62.503 Y179.54 E11.5895
G1 X62.227 Y178.88 E11.61329
G1 X62.026 Y178.194 E11.63707
G1 X61.903 Y177.489 E11.66087
G1 X61.859 Y176.741 E11.68579
G1 X61.859 Y58.259 E15.62652
G1 X61.899 Y57.545 E15.6503
G1 X62.018 Y56.84 E15.67408
G1 X62.216 Y56.152 E15.69789
G1 X62.489 Y55.491 E15.72168
G1 X62.833 Y54.864 E15.74547
G1 X63.246 Y54.28 E15.76926
M204 S5000
M205 X30 Y30
G0 F3600 X63.643 Y54.426
M204 S500
M205 X20 Y20
G1 F1800 X64.115 Y53.92 E15.79227
G1 X64.643 Y53.471 E15.81533
G1 X65.218 Y53.086 E15.83834
G1 X65.835 Y52.771 E15.86138
G1 X66.483 Y52.528 E15.8844
G1 X67.156 Y52.361 E15.90746
G1 X67.842 Y52.273 E15.93047
G1 X68.259 Y52.259 E15.94434
G1 X166.741 Y52.26 E19.21987
G1 X167.432 Y52.3 E19.24289
G1 X168.115 Y52.419 E19.26595
G1 X168.778 Y52.617 E19.28896
G1 X169.415 Y52.889 E19.312
G1 X170.016 Y53.233 E19.33503
G1 X170.574 Y53.644 E19.35808
G1 X171.08 Y54.116 E19.3811
G1 X171.529 Y54.644 E19.40415
G1 X171.914 Y55.219 E19.42717
G1 X172.229 Y55.836 E19.45021
G1 X172.472 Y56.484 E19.47322
G1 X172.639 Y57.157 E19.49629
G1 X172.727 Y57.844 E19.51932
G1 X172.741 Y58.26 E19.53317
G1 X172.741 Y176.741 E23.47386
G1 X172.701 Y177.432 E23.49688
G1 X172.582 Y178.115 E23.51994
G1 X172.384 Y178.778 E23.54296
G1 X172.112 Y179.415 E23.56599
G1 X171.768 Y180.016 E23.58903
G1 X171.357 Y180.574 E23.61208
G1 X170.885 Y181.08 E23.63509
G1 X170.357 Y181.529 E23.65814
G1 X169.782 Y181.914 E23.68116
G1 X169.165 Y182.229 E23.7042
G1 X168.517 Y182.472 E23.72722
G1 X167.844 Y182.639 E23.75028
G1 X167.158 Y182.727 E23.77328
G1 X166.741 Y182.741 E23.78716
G1 X68.259 Y182.741 E27.06269
G1 X67.568 Y182.701 E27.08571
G1 X66.885 Y182.582 E27.10877
G1 X66.222 Y182.384 E27.13178
G1 X65.585 Y182.112 E27.15482
G1 X64.984 Y181.768 E27.17785
G1 X64.426 Y181.357 E27.2009
G1 X63.92 Y180.885 E27.22392
G1 X63.471 Y180.357 E27.24697
G1 X63.086 Y179.782 E27.26998
G1 X62.771 Y179.165 E27.29302
G1 X62.528 Y178.517 E27.31604
G1 X62.361 Y177.844 E27.33911
G1 X62.273 Y177.158 E27.36211
G1 X62.259 Y176.741 E27.37599
G1 X62.259 Y58.259 E31.31671
G1 X62.299 Y57.568 E31.33974
G1 X62.418 Y56.885 E31.36279
G1 X62.616 Y56.222 E31.38581
G1 X62.888 Y55.585 E31.40885
G1 X63.232 Y54.984 E31.43188
G1 X63.643 Y54.426 E31.45493
M204 S5000
M205 X30 Y30
G0 F3600 X64.039 Y54.578
M204 S500
M205 X20 Y20
G1 F1800 X64.508 Y54.101 E31.47718
G1 X65.03 Y53.683 E31.49942
G1 X65.599 Y53.331 E31.52167
G1 X66.206 Y53.049 E31.54393
G1 X66.842 Y52.841 E31.56619
G1 X67.498 Y52.711 E31.58843
G1 X68.259 Y52.659 E31.6138
G1 X166.741 Y52.66 E34.88933
G1 X167.409 Y52.7 E34.91158
G1 X168.067 Y52.819 E34.93383
G1 X168.707 Y53.016 E34.9561
G1 X169.318 Y53.288 E34.97834
G1 X169.892 Y53.631 E35.00058
G1 X170.422 Y54.04 E35.02285
G1 X170.899 Y54.509 E35.0451
G1 X171.317 Y55.031 E35.06734
G1 X171.669 Y55.6 E35.08959
G1 X171.951 Y56.207 E35.11185
G1 X172.159 Y56.843 E35.13411
G1 X172.289 Y57.499 E35.15635
G1 X172.341 Y58.26 E35.18172
G1 X172.341 Y176.741 E39.12242
G1 X172.301 Y177.409 E39.14468
G1 X172.182 Y178.067 E39.16692
G1 X171.985 Y178.707 E39.18919
G1 X171.713 Y179.318 E39.21143
G1 X171.37 Y179.892 E39.23367
G1 X170.961 Y180.422 E39.25594
G1 X170.492 Y180.899 E39.27819
G1 X169.97 Y181.317 E39.30043
G1 X169.401 Y181.669 E39.32268
G1 X168.794 Y181.951 E39.34495
G1 X168.158 Y182.159 E39.3672
G1 X167.502 Y182.289 E39.38944
G1 X166.741 Y182.341 E39.41481
G1 X68.259 Y182.341 E42.69034
G1 X67.591 Y182.301 E42.7126
G1 X66.933 Y182.182 E42.73484
G1 X66.293 Y181.985 E42.75711
G1 X65.682 Y181.713 E42.77935
G1 X65.108 Y181.37 E42.80159
G1 X64.578 Y180.961 E42.82386
G1 X64.101 Y180.492 E42.84611
G1 X63.683 Y179.97 E42.86835
G1 X63.331 Y179.401 E42.89061
G1 X63.049 Y178.794 E42.91287
G1 X62.841 Y178.158 E42.93512
G1 X62.711 Y177.502 E42.95737
G1 X62.659 Y176.741 E42.98274
G1 X62.659 Y58.259 E46.92346
G1 X62.699 Y57.591 E46.94572
G1 X62.818 Y56.933 E46.96796
G1 X63.015 Y56.293 E46.99023
G1 X63.287 Y55.682 E47.01248
G1 X63.63 Y55.108 E47.03472
G1 X64.039 Y54.578 E47.05698
M204 S5000
M205 X30 Y30
G0 F3600 X64.028 Y55.236
M204 S500
M205 X20 Y20
G1 F1800 X64.434 Y54.736 E47.07841
G1 X64.899 Y54.29 E47.09984
G1 X65.416 Y53.905 E47.12128
G1 X65.977 Y53.586 E47.14274
G1 X66.573 Y53.34 E47.16419
G1 X67.194 Y53.169 E47.18561
G1 X67.832 Y53.077 E47.20705
G1 X68.259 Y53.059 E47.22126
G1 X166.741 Y53.06 E50.49679
G1 X167.384 Y53.1 E50.51822
G1 X168.018 Y53.219 E50.53967
G1 X168.632 Y53.416 E50.56112
G1 X169.217 Y53.687 E50.58256
G1 X169.764 Y54.029 E50.60402
G1 X170.264 Y54.435 E50.62544
G1 X170.71 Y54.901 E50.64689
G1 X171.095 Y55.417 E50.66831
G1 X171.414 Y55.978 E50.68977
G1 X171.66 Y56.574 E50.71122
G1 X171.831 Y57.195 E50.73264
G1 X171.923 Y57.833 E50.75408
G1 X171.941 Y58.26 E50.76829
G1 X171.941 Y176.741 E54.70899
G1 X171.901 Y177.384 E54.73042
G1 X171.782 Y178.018 E54.75187
G1 X171.585 Y178.632 E54.77332
G1 X171.314 Y179.217 E54.79476
G1 X170.972 Y179.764 E54.81622
G1 X170.566 Y180.264 E54.83764
G1 X170.101 Y180.71 E54.85907
G1 X169.584 Y181.095 E54.88051
G1 X169.023 Y181.414 E54.90197
G1 X168.427 Y181.66 E54.92342
G1 X167.806 Y181.831 E54.94484
G1 X167.168 Y181.923 E54.96628
G1 X166.741 Y181.941 E54.9805
G1 X68.259 Y181.941 E58.25602
G1 X67.616 Y181.901 E58.27745
G1 X66.982 Y181.782 E58.2989
G1 X66.368 Y181.585 E58.32035
G1 X65.783 Y181.314 E58.34179
G1 X65.236 Y180.972 E58.36325
G1 X64.736 Y180.566 E58.38467
G1 X64.29 Y180.101 E58.4061
G1 X63.905 Y179.584 E58.42754
G1 X63.586 Y179.023 E58.44901
G1 X63.34 Y178.427 E58.47045
G1 X63.169 Y177.806 E58.49188
G1 X63.077 Y177.168 E58.51332
G1 X63.059 Y176.741 E58.52753
G1 X63.059 Y58.259 E62.46826
G1 X63.099 Y57.616 E62.48969
G1 X63.218 Y56.982 E62.51114
G1 X63.415 Y56.368 E62.53259
G1 X63.686 Y55.783 E62.55403
G1 X64.028 Y55.236 E62.57549
M204 S5000
M205 X30 Y30
G1 F2400 E57.57549
;MESH:Bottom.stl
G0 F3600 X67.585 Y58.864
G0 X68.864 Y58.864
G0 X73.301 Y61.387
G0 X73.326 Y61.483
M204 S500
M205 X20 Y20
;TYPE:WALL-INNER
G1 F2400 E62.57549
G1 F1800 X72.697 Y61.744 E62.59814
G1 X72.158 Y62.158 E62.62074
G1 X71.744 Y62.697 E62.64335
G1 X71.483 Y63.326 E62.666
G1 X71.395 Y64 E62.68861
G1 X71.483 Y64.674 E62.71121
G1 X71.744 Y65.303 E62.73386
G1 X72.158 Y65.842 E62.75647
G1 X72.697 Y66.256 E62.77907
G1 X73.326 Y66.517 E62.80172
G1 X74 Y66.605 E62.82433
G1 X74.674 Y66.517 E62.84694
G1 X75.303 Y66.256 E62.86959
G1 X75.842 Y65.842 E62.89219
G1 X76.256 Y65.303 E62.9148
G1 X76.517 Y64.674 E62.93745
G1 X76.605 Y64 E62.96006
G1 X76.517 Y63.326 E62.98266
G1 X76.256 Y62.697 E63.00531
G1 X75.842 Y62.158 E63.02792
G1 X75.303 Y61.744 E63.05053
G1 X74.674 Y61.483 E63.07318
G1 X74 Y61.395 E63.09578
G1 X73.326 Y61.483 E63.11839
M204 S5000
M205 X30 Y30
G0 F3600 X73.301 Y61.387
G0 X160.301 Y61.387
G0 X160.326 Y61.483
M204 S500
M205 X20 Y20
G1 F1800 X159.697 Y61.744 E63.14104
G1 X159.158 Y62.158 E63.16365
G1 X158.744 Y62.697 E63.18625
G1 X158.483 Y63.326 E63.2089
G1 X158.395 Y64 E63.23151
G1 X158.483 Y64.674 E63.25412
G1 X158.744 Y65.303 E63.27677
G1 X159.158 Y65.842 E63.29937
G1 X159.697 Y66.256 E63.32198
G1 X160.326 Y66.517 E63.34463
G1 X161 Y66.605 E63.36723
G1 X161.674 Y66.517 E63.38984
G1 X162.303 Y66.256 E63.41249
G1 X162.842 Y65.842 E63.4351
G1 X163.256 Y65.303 E63.4577
G1 X163.517 Y64.674 E63.48035
G1 X163.605 Y64 E63.50296
G1 X163.517 Y63.326 E63.52557
G1 X163.256 Y62.697 E63.54822
G1 X162.842 Y62.158 E63.57082
G1 X162.303 Y61.744 E63.59343
G1 X161.674 Y61.483 E63.61608
G1 X161 Y61.395 E63.63869
G1 X160.326 Y61.483 E63.66129
M204 S5000
M205 X30 Y30
G0 F3600 X160.301 Y61.387
G0 X159.677 Y61.71
G0 X159.13 Y62.13
G0 X158.71 Y62.677
G0 X158.445 Y63.316
G0 X158.373 Y63.869
G0 X160.301 Y168.387
G0 X160.326 Y168.483
M204 S500
M205 X20 Y20
G1 F1800 X159.697 Y168.744 E63.68394
G1 X159.158 Y169.158 E63.70655
G1 X158.744 Y169.697 E63.72915
G1 X158.483 Y170.326 E63.7518
G1 X158.395 Y171 E63.77441
G1 X158.483 Y171.674 E63.79702
G1 X158.744 Y172.303 E63.81967
G1 X159.158 Y172.842 E63.84227
G1 X159.697 Y173.256 E63.86488
G1 X160.326 Y173.517 E63.88753
G1 X161 Y173.605 E63.91014
G1 X161.674 Y173.517 E63.93274
G1 X162.303 Y173.256 E63.95539
G1 X162.842 Y172.842 E63.978
G1 X163.256 Y172.303 E64.0006
G1 X163.517 Y171.674 E64.02326
G1 X163.605 Y171 E64.04586
G1 X163.517 Y170.326 E64.06847
G1 X163.256 Y169.697 E64.09112
G1 X162.842 Y169.158 E64.11373
G1 X162.303 Y168.744 E64.13633
G1 X161.674 Y168.483 E64.15898
G1 X161 Y168.395 E64.18159
G1 X160.326 Y168.483 E64.2042
M204 S5000
M205 X30 Y30
G0 F3600 X160.301 Y168.387
G0 X161 Y168.355
G0 X161.684 Y168.445
G0 X162.323 Y168.71
G0 X162.87 Y169.13
G0 X163.21 Y169.572
G0 X166.08 Y176.08
G0 X166.15 Y176.15
M204 S500
M205 X20 Y20
G1 F1800 X68.85 Y176.15 E67.44041
G1 X68.85 Y58.85 E71.34182
G1 X166.15 Y58.85 E74.57803
G1 X166.15 Y176.15 E78.47945
M204 S5000
M205 X30 Y30
G0 F3600 X166.08 Y176.08
G0 X74 Y168.355
G0 X73.301 Y168.387
G0 X73.326 Y168.483
M204 S500
M205 X20 Y20
G1 F1800 X72.697 Y168.744 E78.5021
G1 X72.158 Y169.158 E78.5247
G1 X71.744 Y169.697 E78.54731
G1 X71.483 Y170.326 E78.56996
G1 X71.395 Y171 E78.59256
G1 X71.483 Y171.674 E78.61517
G1 X71.744 Y172.303 E78.63782
G1 X72.158 Y172.842 E78.66043
G1 X72.697 Y173.256 E78.68303
G1 X73.326 Y173.517 E78.70568
G1 X74 Y173.605 E78.72829
G1 X74.674 Y173.517 E78.7509
G1 X75.303 Y173.256 E78.77355
G1 X75.842 Y172.842 E78.79615
G1 X76.256 Y172.303 E78.81876
G1 X76.517 Y171.674 E78.84141
G1 X76.605 Y171 E78.86402
G1 X76.517 Y170.326 E78.88662
G1 X76.256 Y169.697 E78.90927
G1 X75.842 Y169.158 E78.93188
G1 X75.303 Y168.744 E78.95448
G1 X74.674 Y168.483 E78.97713
G1 X74 Y168.395 E78.99974
G1 X73.326 Y168.483 E79.02235
M204 S5000
M205 X30 Y30
G0 F3600 X73.43 Y168.873
M204 S500
M205 X20 Y20
;TYPE:WALL-OUTER
G1 F1800 X72.899 Y169.093 E79.04147
G1 X72.443 Y169.443 E79.06058
G1 X72.093 Y169.899 E79.0797
G1 X71.873 Y170.43 E79.09882
G1 X71.798 Y171 E79.11794
G1 X71.873 Y171.57 E79.13706
G1 X72.093 Y172.101 E79.15618
G1 X72.443 Y172.557 E79.1753
G1 X72.899 Y172.907 E79.19442
G1 X73.43 Y173.127 E79.21354
G1 X74 Y173.202 E79.23266
G1 X74.57 Y173.127 E79.25178
G1 X75.101 Y172.907 E79.2709
G1 X75.557 Y172.557 E79.29002
G1 X75.907 Y172.101 E79.30913
G1 X76.127 Y171.57 E79.32825
G1 X76.202 Y171 E79.34737
G1 X76.127 Y170.43 E79.3665
G1 X75.907 Y169.899 E79.38561
G1 X75.557 Y169.443 E79.40473
G1 X75.101 Y169.093 E79.42385
G1 X74.57 Y168.873 E79.44297
G1 X74 Y168.798 E79.46209
G1 X73.43 Y168.873 E79.48121
M204 S5000
M205 X30 Y30
G0 F3600 X73.245 Y168.949
G0 X73.055 Y168.487
G0 X73.82 Y168.381
G0 X160.24 Y168.411
G0 X160.43 Y168.873
M204 S500
M205 X20 Y20
G1 F1800 X159.899 Y169.093 E79.50033
G1 X159.443 Y169.443 E79.51945
G1 X159.093 Y169.899 E79.53857
G1 X158.873 Y170.43 E79.55768
G1 X158.798 Y171 E79.5768
G1 X158.873 Y171.57 E79.59593
G1 X159.093 Y172.101 E79.61504
G1 X159.443 Y172.557 E79.63416
G1 X159.899 Y172.907 E79.65328
G1 X160.43 Y173.127 E79.6724
G1 X161 Y173.202 E79.69152
G1 X161.57 Y173.127 E79.71064
G1 X162.101 Y172.907 E79.72976
G1 X162.557 Y172.557 E79.74888
G1 X162.907 Y172.101 E79.768
G1 X163.127 Y171.57 E79.78711
G1 X163.202 Y171 E79.80624
G1 X163.127 Y170.43 E79.82536
G1 X162.907 Y169.899 E79.84447
G1 X162.557 Y169.443 E79.86359
G1 X162.101 Y169.093 E79.88271
G1 X161.57 Y168.873 E79.90183
G1 X161 Y168.798 E79.92095
G1 X160.43 Y168.873 E79.94007
M204 S5000
M205 X30 Y30
G0 F3600 X160.245 Y168.949
G0 X160.055 Y168.487
G0 X161 Y168.355
G0 X161.684 Y168.445
G0 X162.323 Y168.71
G0 X162.87 Y169.13
G0 X163.21 Y169.572
G0 X166.08 Y176.08
G0 X166.55 Y176.55
M204 S500
M205 X20 Y20
G1 F1800 X68.45 Y176.55 E83.20289
G1 X68.45 Y58.45 E87.13091
G1 X166.55 Y58.45 E90.39373
G1 X166.55 Y176.55 E94.32175
M204 S5000
M205 X30 Y30
G0 F3600 X166.35 Y176.55
G0 X166.08 Y176.08
G0 X158.355 Y64
G0 X158.445 Y63.316
G0 X158.71 Y62.677
G0 X159.13 Y62.13
G0 X159.439 Y61.892
G0 X160.24 Y61.411
G0 X160.43 Y61.873
M204 S500
M205 X20 Y20
G1 F1800 X159.899 Y62.093 E94.34087
G1 X159.443 Y62.443 E94.35999
G1 X159.093 Y62.899 E94.37911
G1 X158.873 Y63.43 E94.39823
G1 X158.798 Y64 E94.41735
G1 X158.873 Y64.57 E94.43647
G1 X159.093 Y65.101 E94.45559
G1 X159.443 Y65.557 E94.47471
G1 X159.899 Y65.907 E94.49383
G1 X160.43 Y66.127 E94.51294
G1 X161 Y66.202 E94.53206
G1 X161.57 Y66.127 E94.55119
G1 X162.101 Y65.907 E94.5703
G1 X162.557 Y65.557 E94.58942
G1 X162.907 Y65.101 E94.60854
G1 X163.127 Y64.57 E94.62766
G1 X163.202 Y64 E94.64678
G1 X163.127 Y63.43 E94.6659
G1 X162.907 Y62.899 E94.68502
G1 X162.557 Y62.443 E94.70414
G1 X162.101 Y62.093 E94.72326
G1 X161.57 Y61.873 E94.74237
G1 X161 Y61.798 E94.7615
G1 X160.43 Y61.873 E94.78062
M204 S5000
M205 X30 Y30
G0 F3600 X160.245 Y61.949
G0 X160.055 Y61.487
G0 X74 Y61.355
G0 X73.24 Y61.411
G0 X73.43 Y61.873
M204 S500
M205 X20 Y20
G1 F1800 X72.899 Y62.093 E94.79973
G1 X72.443 Y62.443 E94.81885
G1 X72.093 Y62.899 E94.83797
G1 X71.873 Y63.43 E94.85709
G1 X71.798 Y64 E94.87621
G1 X71.873 Y64.57 E94.89533
G1 X72.093 Y65.101 E94.91445
G1 X72.443 Y65.557 E94.93357
G1 X72.899 Y65.907 E94.95269
G1 X73.43 Y66.127 E94.9718
G1 X74 Y66.202 E94.99093
G1 X74.57 Y66.127 E95.01005
G1 X75.101 Y65.907 E95.02916
G1 X75.557 Y65.557 E95.04828
G1 X75.907 Y65.101 E95.0674
G1 X76.127 Y64.57 E95.08652
G1 X76.202 Y64 E95.10564
G1 X76.127 Y63.43 E95.12476
G1 X75.907 Y62.899 E95.14388
G1 X75.557 Y62.443 E95.163
G1 X75.101 Y62.093 E95.18212
G1 X74.57 Y61.873 E95.20124
